material/.icons/material/home-floor-3.svg

<svg xmlns="http://www.w3.org/2000/svg" viewBox="0 0 24 24"><path d="M12 3l10 9h-3v8H5v-8H2l10-9m3 8.5V10a2 2 0 00-2-2H9v2h4v2h-2v2h2v2H9v2h4a2 2 0 002-2v-1.5a1.5 1.5 0 00-1.5-1.5 1.5 1.5 0 001.5-1.5z"/></svg>

<?xml version="1.0" encoding="UTF-8"?><!DOCTYPE svg PUBLIC "-//W3C//DTD SVG 1.1//EN" "http://www.w3.org/Graphics/SVG/1.1/DTD/svg11.dtd"><svg xmlns="http://www.w3.org/2000/svg" xmlns:xlink="http://www.w3.org/1999/xlink" version="1.1" id="mdi-home-floor-3" width="24" height="24" viewBox="0 0 24 24"><path d="M12,3L22,12H19V20H5V12H2L12,3M15,11.5V10C15,8.89 14.1,8 13,8H9V10H13V12H11V14H13V16H9V18H13A2,2 0 0,0 15,16V14.5A1.5,1.5 0 0,0 13.5,13A1.5,1.5 0 0,0 15,11.5Z" /></svg>
